packages/core/src/svgs/tokens/branded/WIGO.svg

<svg width="24" height="24" viewBox="0 0 24 24" fill="none" xmlns="http://www.w3.org/2000/svg">
<path d="M22 12H19.8572V5.41428C17.738 7.6634 15.0353 9.27917 12.0512 10.0815C9.06683 10.8837 5.91837 10.8407 2.95715 9.95717L2 9.6715L2.57143 7.75L3.53572 8.03572C8.89283 9.63567 14.75 8.2 18.5785 4.14285H12V2H22V12ZM2 12H4.14285V18.5857C6.26202 16.3367 8.96467 14.7208 11.9488 13.9185C14.9332 13.1163 18.0817 13.1593 21.0428 14.0428L22 14.3285L21.4285 16.25L20.4643 15.9643C17.8422 15.159 15.048 15.0967 12.3925 15.7838C9.73683 16.471 7.32385 17.881 5.42143 19.8572H12V22H2V12Z" fill="#070BF0"/>
</svg>

<svg xmlns="http://www.w3.org/2000/svg" width="24" height="24" fill="none" viewBox="0 0 24 24">
    <path fill="#070BF0" d="M22 12h-2.143V5.414a16.67 16.67 0 0 1-16.9 4.543L2 9.671l.571-1.921.965.286c5.357 1.6 11.214.164 15.042-3.893H12V2h10zM2 12h2.143v6.586a16.67 16.67 0 0 1 16.9-4.543l.957.286-.572 1.921-.964-.286a14.84 14.84 0 0 0-15.043 3.893H12V22H2z"/>
</svg>
